!!!OTL: 774. Zum Abschied.
!!!ARE: Europa, Mitteleuropa, Deutschland, Niederrhein ?
!!!SCT: E0774
!!!TXL: @@DE
!!!YEM: Copyright 1995, estate of Helmut Schaffrath.
**kern	**text
*ICvox	*
*M4/4	*
*met(c)	*
*k[b-e-]	*
*B-:	*
{4f	Nun
4b-	leb
=1	=1
4dd	wohl,
4dd	mein
4cc	fei-
8ddL	-nes
8ccJ	.
=2	=2
4b-/	Lieb-
4f}	-chen!
{4dd	nun
4ee-	leb
=3	=3
4ff	wohl,
4ff	auf
4ee-	e-
8ffL	-wig
8ee-J	.
=4	=4
4dd	wohl!
4r}	.
{4ff	Weit
4ff	und
=5	=5
4gg	breit,
4r	.
4ee-	weit
4ee-	und
=6	=6
4ff	breit,
4r}	.
{4.dd	Kum-
8ff	-mer
=7	=7
8ffL	iſt
8ee-J	.
8ddL	nun
8ccJ	.
4b-	mein
8ddL	Ge-
8ccJ	.
=8	=8
4b-	-leit.
4r}	.
==	==
!!!AGN: Abschieds - Lied, Wander - Lied, Liebe
!!!ONB: ESAC (Essen Associative Code) Database: ERK2
!!!AMT: simple quadruple
!!!AIN: vox
!!!EED: Helmut Schaffrath
!!!EEV: 1.0
!!!GTL: Abschieds- und Wanderlieder
!!!URL-scan: https://rosdok.uni-rostock.de/mcrviewer/recordIdentifier/rosdok_ppn745177662/iview2/phys_0581.iview2?x=104.27648370892894&y=1719.3381963009015&scale=0.7029437510502773&rotation=0&layout=singlePageLayout
!!!ENC: Anna Maria Matuszewska
!!!EEV: 2024/12/17
*-	*-
